icons/evolvere-blue-folders-flat-vivid-dark-fallback/actions/64/system-switch-user.svg

<?xml version="1.0" encoding="UTF-8" standalone="no"?>
<!-- Created with Inkscape (http://www.inkscape.org/) -->

<svg
   xmlns:dc="http://purl.org/dc/elements/1.1/"
   xmlns:cc="http://creativecommons.org/ns#"
   xmlns:rdf="http://www.w3.org/1999/02/22-rdf-syntax-ns#"
   xmlns:svg="http://www.w3.org/2000/svg"
   xmlns="http://www.w3.org/2000/svg"
   xmlns:sodipodi="http://sodipodi.sourceforge.net/DTD/sodipodi-0.dtd"
   xmlns:inkscape="http://www.inkscape.org/namespaces/inkscape"
   width="64"
   height="64"
   id="svg13094"
   version="1.1"
   inkscape:version="0.91+devel r"
   sodipodi:docname="system-switch-user.svg">
  <sodipodi:namedview
     id="base"
     pagecolor="#ffffff"
     bordercolor="#666666"
     borderopacity="1.0"
     inkscape:pageopacity="0"
     inkscape:pageshadow="2"
     inkscape:zoom="11.313709"
     inkscape:cx="14.563661"
     inkscape:cy="32.382207"
     inkscape:document-units="px"
     inkscape:current-layer="svg13094"
     showgrid="true"
     inkscape:snap-bbox="true"
     inkscape:bbox-paths="true"
     inkscape:bbox-nodes="true"
     inkscape:snap-bbox-edge-midpoints="true"
     inkscape:snap-bbox-midpoints="true"
     inkscape:object-paths="true"
     inkscape:snap-intersection-paths="true"
     inkscape:object-nodes="true"
     inkscape:snap-smooth-nodes="true"
     inkscape:snap-midpoints="true"
     inkscape:snap-object-midpoints="true"
     inkscape:snap-center="true"
     showguides="true"
     inkscape:guide-bbox="true"
     inkscape:window-width="1920"
     inkscape:window-height="1023"
     inkscape:window-x="-10"
     inkscape:window-y="35"
     inkscape:window-maximized="1"
     inkscape:snap-global="true"
     fit-margin-top="0"
     fit-margin-left="0"
     fit-margin-right="0"
     fit-margin-bottom="0"
     showborder="true"
     inkscape:showpageshadow="false"
     inkscape:snap-page="true">
    <inkscape:grid
       type="xygrid"
       id="grid3075"
       empspacing="5"
       visible="true"
       enabled="true"
       snapvisiblegridlinesonly="true"
       originx="1.6362304e-08px"
       originy="18px" />
  </sodipodi:namedview>
  <defs
     id="defs13096" />
  <metadata
     id="metadata13099">
    <rdf:RDF>
      <cc:Work
         rdf:about="">
        <dc:format>image/svg+xml</dc:format>
        <dc:type
           rdf:resource="http://purl.org/dc/dcmitype/StillImage" />
        <dc:title></dc:title>
      </cc:Work>
    </rdf:RDF>
  </metadata>
  <path
     inkscape:connector-curvature="0"
     style="color:#000000;fill:#26c28c;fill-opacity:1;fill-rule:nonzero;stroke:none;stroke-width:2.28571415;marker:none;visibility:visible;display:inline;overflow:visible;enable-background:accumulate"
     d="m 0,4 0,30 0,28 2,2 30,0 30,0 2,-2 L 64,34 64,4 32,4 0,4 z"
     id="path4095" />
  <path
     inkscape:connector-curvature="0"
     style="color:#000000;fill:#2affb3;fill-opacity:1;fill-rule:nonzero;stroke:none;stroke-width:2.28571415;marker:none;visibility:visible;display:inline;overflow:visible;enable-background:accumulate"
     d="M 2,0 0,1 0,4 32,4 64,4 64,1 62,0 32,0 2,0 z"
     id="path4090" />
  <path
     inkscape:connector-curvature="0"
     style="fill:#66ffc8;fill-opacity:1;fill-rule:nonzero"
     d="M 0,3 0,6 2,4 Z"
     id="path4298"
     sodipodi:nodetypes="cccc" />
  <path
     d="M 64,6 62,4 64,3 z"
     id="path3028"
     style="fill:#29e1a0;fill-opacity:1"
     inkscape:connector-curvature="0" />
  <g
     id="g3043"
     inkscape:export-filename="folder.png"
     inkscape:export-xdpi="90"
     inkscape:export-ydpi="90"
     transform="translate(-0.62500009,0.082283)" />
  <g
     id="scalable"
     transform="matrix(1.0385892,0,0,1.0385892,1214.7222,1878.8121)"
     inkscape:label="#g3701"
     style="fill:#ffffff" />
  <path
     inkscape:connector-curvature="0"
     style="fill:#ccffee;fill-opacity:1;fill-rule:nonzero;stroke:none"
     d="m 32,17 c -8.156576,0 -14.887378,6.111114 -15.875,14 l 4.0625,0 C 21.133454,25.317178 26.048758,21 32,21 c 2.453418,0 4.724414,0.736358 6.625,2 L 44.5,23 C 41.56773,19.342972 37.052108,17 32,17 z m 2,10 0,4 9.8125,0 2.1875,0 1.875,0 C 47.70072,29.607828 47.320788,28.257232 46.8125,27 L 46,27 42.375,27 34,27 z m -17.875,8 c 0.17428,1.392172 0.554212,2.742768 1.0625,4 l 4.4375,0 8.375,0 0,-4 -9.8125,0 -4.0625,0 z m 27.6875,0 C 42.866544,40.68282 37.95124,45 32,45 29.546582,45 27.275586,44.263642 25.375,43 L 19.5,43 c 2.93227,3.657028 7.447892,6 12.5,6 8.156576,0 14.887378,-6.111114 15.875,-14 l -4.0625,0 z"
     id="path2987" />
</svg>

<svg xmlns="http://www.w3.org/2000/svg" viewBox="0 0 64 64"><g color="#000"><path d="m0 4v30 28l2 2h30 30l2-2v-28-30h-32-32" fill="#26c28c"/><path d="m2 0l-2 1v3h32 32v-3l-2-1h-30-30" fill="#2affb3"/></g><path d="m0 3v3l2-2" fill="#66ffc8"/><path d="m64 6l-2-2 2-1z" fill="#29e1a0"/><path d="m32 17c-8.157 0-14.887 6.111-15.875 14h4.063c.946-5.683 5.861-10 11.813-10 2.453 0 4.724.736 6.625 2h5.875c-2.932-3.657-7.448-6-12.5-6m2 10v4h9.813 2.188 1.875c-.174-1.392-.554-2.743-1.063-4h-.813-3.625-8.375m-17.875 8c.174 1.392.554 2.743 1.063 4h4.438 8.375v-4h-9.813-4.063m27.688 0c-.946 5.683-5.861 10-11.813 10-2.453 0-4.724-.736-6.625-2h-5.875c2.932 3.657 7.448 6 12.5 6 8.157 0 14.887-6.111 15.875-14h-4.063" fill="#cfe"/></svg>
